www/assets/icons/event_seat.svg

<svg xmlns="http://www.w3.org/2000/svg" width="24" height="24" viewBox="0 0 24 24" fill='currentColor'><path d="M4 21h3v-3h10v3h3v-6H4zm15-11h3v3h-3zM2 10h3v3H2zm15 3H7V5c0-1.1.9-2 2-2h6c1.1 0 2 .9 2 2z"/></svg>

<svg width="24" height="24" viewBox="0 0 24 24" xmlns="http://www.w3.org/2000/svg" fill='currentColor'><path d="M4 21H7V18H17V21H20V15H4V21ZM19 10H22V13H19V10ZM2 10H5V13H2V10ZM17 13H7V5C7 3.9 7.9 3 9 3H15C16.1 3 17 3.9 17 5V13Z"/></svg>
